X: 12
T:Come Under My Plaidy. ST.12
T:Johnny McGill,aka. ST.12
M:6/8
L:1/8
Q:120
C:Johnny McGill,aka
S:Annonymous Staffordshire MS, Early 19thC.
R:Jig
O:England
A:Staffordshire
Z:vmp.Tim Willets
K:G
g|dBB BAB|dBBB2g|dBB BAB|GEE E2g|!
dBB BAB|dBB BAG|AAA BAB|GEEE2:|!
|:d|gfg aga|bag fed|gfg aga|bge ega|!
bgb afa|gef gfe|dBB BAB| GEE E2:|]
